scalable/apps/gnome-mplayer.svg

<svg height="64" width="64" xmlns="http://www.w3.org/2000/svg"><g transform="translate(0 -3)"><path d="m3.5 51v5.5c0 1.108.862 2 1.932 2h53.136c1.07 0 1.932-.892 1.932-2v-5.5z" fill="#30393c" fill-opacity=".902" opacity=".9"/><path d="m5.432 11.5c-1.07 0-1.932.892-1.932 2v37.5h57v-37.5c0-1.108-.862-2-1.932-2z" fill="#4790e2"/><path d="m5.417 11c-1.33 0-2.417 1.124-2.417 2.5v37.5h.967v-37.5c0-.84.638-1.5 1.45-1.5h53.166c.812 0 1.45.66 1.45 1.5v37.5h.967v-37.5c0-1.376-1.086-2.5-2.417-2.5z" fill="#0d007a" opacity=".5"/><path d="m25.214 22.004a1.333 1.345 0 0 0 -1.214 1.34v17.321a1.333 1.345 0 0 0 1.976 1.168l15.353-8.66a1.333 1.345 0 0 0 0-2.337l-15.353-8.66a1.333 1.345 0 0 0 -.762-.172z" fill="#fff" fill-rule="evenodd"/><path d="m3 51.5h58" fill="none" opacity=".2" stroke="#000"/><rect height="1" opacity=".4" ry=".463" width="52" x="6" y="54"/><path d="m18.5 52.5a2 2 0 1 1 -.001 4.001 2 2 0 0 1 .001-4.001z" fill="#637279"/><path d="m18.5 52.5a2 2 0 1 1 -.001 4.001 2 2 0 0 1 .001-4.001z" fill="none" stroke="#292e2f" stroke-linecap="round" stroke-linejoin="round"/><path d="m3 51v5.5c0 1.376 1.086 2.5 2.417 2.5h53.166c1.33 0 2.417-1.124 2.417-2.5v-5.5h-.967v5.5c0 .84-.638 1.5-1.45 1.5h-53.166c-.812 0-1.45-.66-1.45-1.5v-5.5z" opacity=".5"/></g></svg>

<svg width="64" height="64" version="1.0" xmlns="http://www.w3.org/2000/svg"><g transform="translate(0 -3)"><path d="M3.5 51v5.5c0 1.108.862 2 1.932 2h53.136c1.07 0 1.932-.892 1.932-2V51z" fill="#30393c" fill-opacity=".902" opacity=".9" overflow="visible"/><path d="M5.432 11.5c-1.07 0-1.932.892-1.932 2V51h57V13.5c0-1.108-.862-2-1.932-2z" fill="#4790e2" overflow="visible"/><path d="M5.417 11C4.087 11 3 12.124 3 13.5V51h.967V13.5c0-.84.638-1.5 1.45-1.5h53.166c.812 0 1.45.66 1.45 1.5V51H61V13.5c0-1.376-1.086-2.5-2.417-2.5z" fill="#0d007a" font-family="sans-serif" font-weight="400" opacity=".5" overflow="visible" style="isolation:auto;mix-blend-mode:normal;text-decoration-color:#000;text-decoration-line:none;text-decoration-style:solid;text-indent:0;text-transform:none;white-space:normal"/><path d="M25.214 22.004A1.333 1.345 0 0 0 24 23.344v17.321a1.333 1.345 0 0 0 1.976 1.168l15.353-8.66a1.333 1.345 0 0 0 0-2.337l-15.353-8.66a1.333 1.345 0 0 0-.762-.172z" fill="#fff" fill-rule="evenodd"/><path d="M3 51.5h58" fill="none" opacity=".2" stroke="#000"/><rect x="6" y="54" width="52" height="1" ry=".463" opacity=".4"/><path d="M18.5 52.5a2 2 0 1 1-.001 4.001A2 2 0 0 1 18.5 52.5z" fill="#637279" overflow="visible"/><path d="M18.5 52.5a2 2 0 1 1-.001 4.001A2 2 0 0 1 18.5 52.5z" fill="none" overflow="visible" stroke="#292e2f" stroke-linecap="round" stroke-linejoin="round"/><path d="M3 51v5.5C3 57.876 4.086 59 5.417 59h53.166C59.913 59 61 57.876 61 56.5V51h-.967v5.5c0 .84-.638 1.5-1.45 1.5H5.417c-.812 0-1.45-.66-1.45-1.5V51z" font-family="sans-serif" font-weight="400" opacity=".5" overflow="visible" style="isolation:auto;mix-blend-mode:normal;text-decoration-color:#000;text-decoration-line:none;text-decoration-style:solid;text-indent:0;text-transform:none;white-space:normal"/></g></svg>
